X:559
L:1/8
Q:1/4=120
M:4/4
K:F
"^Slow" (F/G/A) | TF3 E D>EF>G |{FG} A2 TG>F F2 (AB) | c2 F2 (dc)(BA) | G3 A G2 (F/G/A) | 
 TF3 E (D>E)(F>G) | (TAGA)F f3 g | agfd (cd)(fc) | A3 B A2 :: (F/G/4A/4B/4c/4) | d2 (d/e/f) c2 d2 | 
 A2 (A/B/c) (BA)(GF) | TB>ABc (d/c/d/e/ f)A | G3 A G2 (F/G/A) | TF3 E (DE)(FG) | (TAG)AF f3 g | 
 agfd c(d/e/f)c | A3 B A2 :|

